picto/business-zone.svg

<svg class="color-immutable" width="24" height="24" viewBox="0 0 24 24" fill="none" xmlns="http://www.w3.org/2000/svg"><path d="M0 22.499V1.49899C0 0.673993 0.675 -0.00100708 1.5 -0.00100708H22.5C23.325 -0.00100708 24 0.673993 24 1.49899V22.499C24 23.324 23.325 23.999 22.5 23.999H1.5C0.675 23.999 0 23.324 0 22.499Z" fill="#2D327D"/><path d="M20.458 11.624H18.334C18.051 11.624 17.822 11.853 17.822 12.136V17.209C17.822 17.492 18.051 17.721 18.334 17.721H20.458C20.741 17.721 20.97 17.492 20.97 17.209V12.136C20.97 11.853 20.741 11.624 20.458 11.624ZM19.391 17.428C19.27 17.426 19.174 17.322 19.177 17.196C19.179 17.07 19.28 16.97 19.4 16.971C19.521 16.973 19.618 17.077 19.615 17.203C19.613 17.33 19.513 17.43 19.391 17.428ZM20.555 16.579H18.237V12.198H20.555V16.579Z" fill="white"/><path d="M16.056 18.249V18.248V11.944C16.056 11.768 15.913 11.624 15.736 11.624H4.84802C4.67202 11.624 4.52802 11.767 4.52802 11.944V18.248V18.249L3.21802 20.524C3.21802 20.524 3.24202 21 3.44202 21H17.142C17.342 21.001 17.366 20.524 17.366 20.524L16.056 18.249ZM4.93602 12.032H15.648V18.159H4.93602V12.032ZM12.274 20.522H8.31102C8.24702 20.522 8.20902 20.472 8.22702 20.411L8.38902 19.841C8.40602 19.78 8.47302 19.73 8.53602 19.73H12.046C12.11 19.73 12.176 19.78 12.193 19.841L12.355 20.411C12.375 20.472 12.337 20.522 12.274 20.522ZM16.161 19.449H4.42402C4.36102 19.449 4.33402 19.404 4.36402 19.348L4.73602 18.67C4.76702 18.614 4.84302 18.569 4.90702 18.569H15.678C15.741 18.569 15.818 18.615 15.849 18.67L16.221 19.348C16.251 19.404 16.224 19.449 16.161 19.449Z" fill="white"/><path d="M3 3H4.012C4.229 3 4.391 3.027 4.498 3.082C4.598 3.133 4.674 3.208 4.726 3.305C4.769 3.386 4.79 3.473 4.79 3.566C4.79 3.669 4.764 3.76 4.712 3.84C4.66 3.919 4.584 3.982 4.484 4.029C4.57 4.057 4.635 4.087 4.678 4.119C4.824 4.226 4.896 4.381 4.896 4.585C4.896 4.706 4.869 4.815 4.815 4.911C4.762 5.008 4.685 5.085 4.584 5.144C4.465 5.214 4.305 5.249 4.103 5.249H3V3ZM3.491 3.386V3.91H3.94C4.045 3.91 4.121 3.898 4.171 3.873C4.262 3.829 4.308 3.753 4.308 3.645C4.308 3.554 4.279 3.488 4.222 3.447C4.164 3.406 4.07 3.386 3.94 3.386H3.491ZM3.491 4.245V4.862H3.988C4.131 4.862 4.231 4.842 4.288 4.802C4.364 4.748 4.402 4.665 4.402 4.554C4.402 4.422 4.351 4.331 4.248 4.283C4.191 4.258 4.096 4.245 3.963 4.245H3.491Z" fill="white"/><path d="M6.70498 3.56897V5.24897H6.28098V5.00397C6.15298 5.19697 5.97298 5.29397 5.74198 5.29397C5.54098 5.29397 5.38898 5.22697 5.28698 5.09297C5.24798 5.04097 5.21998 4.97897 5.20298 4.90797C5.18598 4.83797 5.17798 4.74497 5.17798 4.63097V3.56897H5.62398V4.49297C5.62398 4.58897 5.62698 4.65797 5.63198 4.69797C5.63798 4.73797 5.64898 4.77197 5.66698 4.79997C5.71398 4.87497 5.79498 4.91197 5.90798 4.91197C6.04798 4.91197 6.15098 4.84997 6.21398 4.72597C6.24498 4.66597 6.25998 4.55597 6.25998 4.39797V3.56897H6.70498Z" fill="white"/><path d="M8.41598 4.05897H7.99698C7.98898 4.00197 7.97298 3.95797 7.94998 3.92897C7.90298 3.86897 7.81798 3.83897 7.69298 3.83897C7.61398 3.83897 7.55298 3.85297 7.50998 3.88197C7.46698 3.91097 7.44498 3.95197 7.44498 4.00397C7.44498 4.05897 7.46898 4.09997 7.51698 4.12597C7.56498 4.15197 7.67398 4.18197 7.84398 4.21697C8.05998 4.25997 8.21598 4.31497 8.31098 4.38097C8.42398 4.45797 8.47998 4.57497 8.47998 4.73097C8.47998 4.90997 8.40998 5.04897 8.27098 5.14797C8.13398 5.24597 7.95198 5.29397 7.72498 5.29397C7.44398 5.29397 7.23798 5.22497 7.10698 5.08597C7.01898 4.99197 6.96898 4.86397 6.95898 4.70097H7.38698C7.39498 4.77697 7.41498 4.83397 7.44498 4.87297C7.50198 4.94297 7.59698 4.97797 7.72998 4.97797C7.82198 4.97797 7.89598 4.95897 7.94998 4.92197C8.00398 4.88497 8.03098 4.83297 8.03098 4.76997C8.03098 4.71297 8.00798 4.66997 7.96098 4.64197C7.91398 4.61397 7.81598 4.58197 7.66498 4.54697C7.51898 4.51297 7.41598 4.48697 7.35598 4.46797C7.29598 4.44897 7.24098 4.42597 7.19298 4.39997C7.12998 4.36297 7.08198 4.31297 7.04698 4.24797C7.01198 4.18397 6.99398 4.11197 6.99398 4.03297C6.99398 3.85897 7.06598 3.72597 7.21098 3.63497C7.32898 3.55997 7.49298 3.52197 7.70298 3.52197C7.98098 3.52197 8.17998 3.59297 8.30098 3.73397C8.36698 3.81197 8.40498 3.91997 8.41598 4.05897Z" fill="white"/><path d="M9.19502 3V3.401H8.74902V3H9.19502ZM9.19502 3.572V5.249H8.74902V3.572H9.19502Z" fill="white"/><path d="M9.97503 3.573V3.808C10.027 3.736 10.076 3.683 10.121 3.65C10.232 3.564 10.365 3.521 10.521 3.521C10.658 3.521 10.775 3.556 10.87 3.626C10.946 3.681 10.999 3.751 11.029 3.836C11.059 3.921 11.074 4.04 11.074 4.194V5.249H10.63V4.287C10.63 4.179 10.621 4.1 10.602 4.05C10.585 4.006 10.555 3.971 10.513 3.945C10.465 3.917 10.41 3.903 10.348 3.903C10.28 3.903 10.219 3.919 10.163 3.952C10.108 3.985 10.067 4.029 10.04 4.086C10.01 4.15 9.99503 4.249 9.99503 4.383V5.247H9.55103V3.573H9.97503Z" fill="white"/><path d="M12.934 4.72501C12.91 4.81901 12.868 4.90801 12.806 4.99101C12.658 5.19301 12.446 5.29401 12.169 5.29401C11.919 5.29401 11.718 5.21501 11.568 5.05701C11.494 4.98001 11.438 4.88701 11.399 4.77901C11.357 4.66301 11.336 4.54201 11.336 4.41601C11.336 4.17201 11.406 3.96701 11.547 3.80101C11.704 3.61501 11.907 3.52301 12.156 3.52301C12.357 3.52301 12.528 3.58501 12.67 3.70901C12.772 3.79801 12.845 3.90801 12.891 4.03901C12.937 4.17001 12.96 4.33401 12.96 4.53201H11.79C11.794 4.61401 11.807 4.68201 11.828 4.73701C11.888 4.88401 12.003 4.95701 12.173 4.95701C12.256 4.95701 12.324 4.93901 12.376 4.90201C12.428 4.86501 12.471 4.80701 12.505 4.72601H12.934V4.72501ZM12.505 4.23201C12.497 4.15101 12.478 4.08401 12.45 4.03101C12.421 3.97901 12.381 3.93701 12.328 3.90601C12.275 3.87501 12.218 3.86001 12.155 3.86001C12.056 3.86001 11.974 3.89301 11.909 3.96001C11.844 4.02701 11.806 4.11701 11.794 4.23201H12.505Z" fill="white"/><path d="M14.605 4.05902H14.187C14.179 4.00202 14.163 3.95802 14.139 3.92802C14.093 3.86902 14.007 3.83902 13.882 3.83902C13.803 3.83902 13.742 3.85302 13.699 3.88202C13.656 3.91102 13.634 3.95102 13.634 4.00402C13.634 4.05902 13.658 4.10002 13.705 4.12602C13.753 4.15202 13.862 4.18202 14.032 4.21702C14.248 4.26102 14.404 4.31602 14.5 4.38202C14.613 4.45902 14.669 4.57602 14.669 4.73302C14.669 4.91202 14.599 5.05102 14.46 5.15002C14.323 5.24702 14.141 5.29602 13.914 5.29602C13.633 5.29602 13.427 5.22702 13.296 5.08802C13.208 4.99402 13.159 4.86502 13.148 4.70202H13.576C13.584 4.77802 13.604 4.83502 13.634 4.87402C13.691 4.94402 13.786 4.97902 13.919 4.97902C14.011 4.97902 14.085 4.96002 14.139 4.92302C14.193 4.88602 14.221 4.83502 14.221 4.77102C14.221 4.71402 14.198 4.67102 14.151 4.64302C14.104 4.61502 14.006 4.58302 13.855 4.54802C13.709 4.51402 13.606 4.48802 13.546 4.46902C13.486 4.45002 13.431 4.42702 13.383 4.40102C13.32 4.36502 13.272 4.31502 13.237 4.25002C13.202 4.18502 13.185 4.11402 13.185 4.03502C13.185 3.86102 13.257 3.72802 13.402 3.63702C13.52 3.56202 13.684 3.52502 13.894 3.52502C14.172 3.52502 14.371 3.59602 14.492 3.73702C14.557 3.81202 14.595 3.92002 14.605 4.05902Z" fill="white"/><path d="M16.328 4.05902H15.91C15.902 4.00202 15.886 3.95802 15.862 3.92802C15.816 3.86902 15.73 3.83902 15.605 3.83902C15.526 3.83902 15.465 3.85302 15.422 3.88202C15.379 3.91102 15.357 3.95102 15.357 4.00402C15.357 4.05902 15.381 4.10002 15.428 4.12602C15.476 4.15202 15.585 4.18202 15.755 4.21702C15.971 4.26102 16.127 4.31602 16.223 4.38202C16.336 4.45902 16.392 4.57602 16.392 4.73302C16.392 4.91202 16.322 5.05102 16.183 5.15002C16.046 5.24702 15.864 5.29602 15.637 5.29602C15.356 5.29602 15.15 5.22702 15.019 5.08802C14.931 4.99402 14.882 4.86502 14.871 4.70202H15.299C15.307 4.77802 15.327 4.83502 15.357 4.87402C15.414 4.94402 15.509 4.97902 15.642 4.97902C15.734 4.97902 15.808 4.96002 15.862 4.92302C15.916 4.88602 15.944 4.83502 15.944 4.77102C15.944 4.71402 15.921 4.67102 15.874 4.64302C15.827 4.61502 15.729 4.58302 15.578 4.54802C15.432 4.51402 15.329 4.48802 15.269 4.46902C15.209 4.45002 15.154 4.42702 15.106 4.40102C15.043 4.36502 14.995 4.31502 14.96 4.25002C14.925 4.18502 14.908 4.11402 14.908 4.03502C14.908 3.86102 14.98 3.72802 15.125 3.63702C15.243 3.56202 15.407 3.52502 15.617 3.52502C15.895 3.52502 16.094 3.59602 16.215 3.73702C16.279 3.81202 16.317 3.92002 16.328 4.05902Z" fill="white"/></svg>

<svg class="color-immutable" width="24" height="24" viewBox="0 0 24 24" fill="none" xmlns="http://www.w3.org/2000/svg"><g clip-path="url(#a)"><path d="M0 22.499v-21c0-.825.675-1.5 1.5-1.5h21c.825 0 1.5.675 1.5 1.5v21c0 .825-.675 1.5-1.5 1.5h-21c-.825 0-1.5-.675-1.5-1.5Z" fill="#2D327D"/><path d="M20.458 11.624h-2.124a.512.512 0 0 0-.512.512v5.073c0 .283.229.512.512.512h2.124a.512.512 0 0 0 .512-.512v-5.073a.512.512 0 0 0-.512-.512Zm-1.067 5.804a.222.222 0 0 1-.214-.232.226.226 0 0 1 .223-.225.223.223 0 0 1 .215.232.224.224 0 0 1-.224.225Zm1.164-.849h-2.318v-4.381h2.318v4.381ZM16.056 18.249V11.944a.32.32 0 0 0-.32-.32H4.848a.32.32 0 0 0-.32.32V18.249l-1.31 2.275s.024.476.224.476h13.7c.2.001.224-.476.224-.476l-1.31-2.275Zm-11.12-6.217h10.712v6.127H4.936v-6.127Zm7.338 8.49H8.311c-.064 0-.102-.05-.084-.111l.162-.57a.162.162 0 0 1 .147-.111h3.51c.064 0 .13.05.147.111l.162.57c.02.061-.018.111-.081.111Zm3.887-1.073H4.424c-.063 0-.09-.045-.06-.101l.372-.678a.214.214 0 0 1 .171-.101h10.771c.063 0 .14.046.171.101l.372.678c.03.056.003.101-.06.101ZM3 3h1.012c.217 0 .379.027.486.082.1.051.176.126.228.223a.548.548 0 0 1-.014.535.538.538 0 0 1-.228.189.694.694 0 0 1 .194.09c.146.107.218.262.218.466 0 .121-.027.23-.081.326a.601.601 0 0 1-.231.233c-.119.07-.279.105-.481.105H3V3Zm.491.386v.524h.449a.539.539 0 0 0 .231-.037c.091-.044.137-.12.137-.228 0-.091-.029-.157-.086-.198-.058-.041-.152-.061-.282-.061h-.449Zm0 .859v.617h.497c.143 0 .243-.02.3-.06.076-.054.114-.137.114-.248 0-.132-.051-.223-.154-.271a.77.77 0 0 0-.285-.038h-.472ZM6.705 3.569v1.68h-.424v-.245a.612.612 0 0 1-.539.29c-.201 0-.353-.067-.455-.201a.498.498 0 0 1-.084-.185 1.222 1.222 0 0 1-.025-.277V3.569h.446v.924c0 .096.003.165.008.205.006.04.017.074.035.102.047.075.128.112.241.112a.32.32 0 0 0 .306-.186c.031-.06.046-.17.046-.328v-.829h.445ZM8.416 4.059h-.419a.27.27 0 0 0-.047-.13c-.047-.06-.132-.09-.257-.09a.326.326 0 0 0-.183.043.14.14 0 0 0-.065.122.13.13 0 0 0 .072.122c.048.026.157.056.327.091.216.043.372.098.467.164.113.077.169.194.169.35 0 .179-.07.318-.209.417-.137.098-.319.146-.546.146-.281 0-.487-.069-.618-.208a.597.597 0 0 1-.148-.385h.428a.338.338 0 0 0 .058.172c.057.07.152.105.285.105a.385.385 0 0 0 .22-.056.176.176 0 0 0 .081-.152c0-.057-.023-.1-.07-.128a1.211 1.211 0 0 0-.296-.095 4.8 4.8 0 0 1-.309-.079.94.94 0 0 1-.163-.068.381.381 0 0 1-.146-.152.442.442 0 0 1-.053-.215c0-.174.072-.307.217-.398.118-.075.282-.113.492-.113.278 0 .477.071.598.212a.558.558 0 0 1 .115.325ZM9.195 3v.401h-.446V3h.446Zm0 .572v1.677h-.446V3.572h.446ZM9.975 3.573v.235a.633.633 0 0 1 .546-.287c.137 0 .254.035.349.105a.432.432 0 0 1 .159.21c.03.085.045.204.045.358v1.055h-.444v-.962a.722.722 0 0 0-.028-.237.211.211 0 0 0-.089-.105.321.321 0 0 0-.165-.042.356.356 0 0 0-.185.049.306.306 0 0 0-.123.134.738.738 0 0 0-.045.297v.864h-.444V3.573h.424ZM12.934 4.725a.752.752 0 0 1-.128.266c-.148.202-.36.303-.637.303-.25 0-.451-.079-.601-.237a.775.775 0 0 1-.169-.278 1.058 1.058 0 0 1-.063-.363c0-.244.07-.449.211-.615a.76.76 0 0 1 .609-.278.754.754 0 0 1 .735.516c.046.131.069.295.069.493h-1.17c.004.082.017.15.038.205.06.147.175.22.345.22a.343.343 0 0 0 .203-.055.396.396 0 0 0 .129-.176h.429v-.001Zm-.429-.493a.544.544 0 0 0-.055-.201.334.334 0 0 0-.295-.171.328.328 0 0 0-.246.1.442.442 0 0 0-.115.272h.711ZM14.605 4.059h-.418a.268.268 0 0 0-.048-.131c-.046-.059-.132-.089-.257-.089a.326.326 0 0 0-.183.043.139.139 0 0 0-.065.122.13.13 0 0 0 .071.122c.048.026.157.056.327.091.216.044.372.099.468.165.113.077.169.194.169.351 0 .179-.07.318-.209.417-.137.097-.319.146-.546.146-.281 0-.487-.069-.618-.208a.605.605 0 0 1-.148-.386h.428a.338.338 0 0 0 .058.172c.057.07.152.105.285.105a.385.385 0 0 0 .22-.056.176.176 0 0 0 .082-.152c0-.057-.023-.1-.07-.128a1.211 1.211 0 0 0-.296-.095 4.8 4.8 0 0 1-.309-.079.94.94 0 0 1-.163-.068.373.373 0 0 1-.146-.151.444.444 0 0 1-.052-.215c0-.174.072-.307.217-.398.118-.075.282-.112.492-.112.278 0 .477.071.598.212a.54.54 0 0 1 .113.322ZM16.328 4.059h-.418a.268.268 0 0 0-.048-.131c-.046-.059-.132-.089-.257-.089a.326.326 0 0 0-.183.043.139.139 0 0 0-.065.122.13.13 0 0 0 .071.122c.048.026.157.056.327.091.216.044.372.099.468.165.113.077.169.194.169.351 0 .179-.07.318-.209.417-.137.097-.319.146-.546.146-.281 0-.487-.069-.618-.208a.605.605 0 0 1-.148-.386h.428a.338.338 0 0 0 .058.172c.057.07.152.105.285.105a.385.385 0 0 0 .22-.056.176.176 0 0 0 .082-.152c0-.057-.023-.1-.07-.128a1.211 1.211 0 0 0-.296-.095 4.8 4.8 0 0 1-.309-.079.94.94 0 0 1-.163-.068.373.373 0 0 1-.146-.151.444.444 0 0 1-.052-.215c0-.174.072-.307.217-.398.118-.075.282-.112.492-.112.278 0 .477.071.598.212a.554.554 0 0 1 .113.322Z" fill="#fff"/></g><defs><clipPath id="a"><path fill="#fff" d="M0 0h24v24H0z"/></clipPath></defs></svg>
